!!!OTL: N N IST EIN SCHOENES STAEDTCHEN
!!!ARE: Europa, Mitteleuropa, Deutschland, Westfalen
!!!SCT: E0773
!!!YEM: Copyright 1995, estate of Helmut Schaffrath.
**kern
*ICvox
*Ivox
*M4/4
*k[b-]
*F:
=1
{8f
8g
8a
8b-
4cc
4ff
=2
4dd
4dd
4cc
4a}
=3
{4.b-
8g
4f
8f
8a
=4
4cc
8cc
8b-
4a
4r}
=5
{4.cc
8a
4g
4a
=6
8b-
8a
8b-
8cc
4a
4r}
=7
{4cc
4ff
4dd
8cc
8b-
=8
4a
4g
4f
4r}
==
!!!AGN: Abschieds - Lied, Wander - Lied, Liebe
!!!ONB: ESAC (Essen Associative Code) Database: ERK2
!!!AMT: simple quadruple
!!!AIN: vox
!!!EED: Helmut Schaffrath
!!!EEV: 1.0
*-
